logos/replit-icon.svg

<?xml version="1.0" encoding="UTF-8"?>
<svg width="256px" height="308px" viewBox="0 0 256 308" version="1.1" xmlns="http://www.w3.org/2000/svg" preserveAspectRatio="xMidYMid">
    <title>replit</title>
    <g>
        <path d="M0,19.2 C0,8.59648 8.59648,-2.13162821e-14 19.2,-2.13162821e-14 L108.8,-2.13162821e-14 C119.40352,-2.13162821e-14 128,8.59648 128,19.2 L128,102.4 L19.2,102.4 C8.59648,102.4 0,93.80352 0,83.2 L0,19.2 Z M128,102.4 L236.8,102.4 C247.40352,102.4 256,110.99648 256,121.6 L256,185.6 C256,196.20352 247.40352,204.8 236.8,204.8 L128,204.8 L128,102.4 Z M0,224 C0,213.39648 8.59648,204.8 19.2,204.8 L128,204.8 L128,288 C128,298.60352 119.40352,307.2 108.8,307.2 L19.2,307.2 C8.59648,307.2 0,298.60352 0,288 L0,224 Z" fill="#F26207"></path>
    </g>
</svg>

<svg preserveAspectRatio="xMidYMid" viewBox="0 0 256 308" xmlns="http://www.w3.org/2000/svg">
  <path fill="#F26207" d="M0 19.2C0 8.596 8.596 0 19.2 0h89.6C119.404 0 128 8.596 128 19.2v83.2H19.2C8.596 102.4 0 93.804 0 83.2v-64Zm128 83.2h108.8c10.604 0 19.2 8.596 19.2 19.2v64c0 10.604-8.596 19.2-19.2 19.2H128V102.4ZM0 224c0-10.604 8.596-19.2 19.2-19.2H128V288c0 10.604-8.596 19.2-19.2 19.2H19.2C8.596 307.2 0 298.604 0 288v-64Z"/>
</svg>
